repeat 10

[

	penup

	right 90

	forward 100

	left 70

	pendown

	repeat 50

	[

		penup

		forward 50

		right 90

		pendown

		repeat 50

		[

			forward 40

			right 90

			forward 20

			left 20

		]

		penup

		forward 20

		left 20

		pendown

	]

]


